assets/svg/social/bg-social-block.svg

<svg  viewBox="0 0 435 510" fill="none" xmlns="http://www.w3.org/2000/svg">
  <path d="M458 4.8896C418.5 16.8895 338.957 28.4019 294.373 37.1799C238.643 48.1523 106.658 77.7524 106.658 77.7524C106.658 77.7524 61.105 78.1199 51.8908 99.9221C46.7061 112.19 38.7195 129.197 53.7991 143.452C75.6053 164.064 183.552 146.741 207.227 144.593C230.901 142.446 332 116 404.38 137.869C444.262 149.919 450.124 185.964 442.519 194.194C372 270.5 173.985 221.244 120.259 230.745C72.8941 239.12 77.3215 282.387 96.4383 288.049C115.555 293.71 214 258 317.436 241.89C396.345 229.599 442.519 232.576 442.519 278C442.519 323.686 296.845 295 244 295C195.564 295 180.382 356.326 203.5 370.5C226.618 384.674 264 383.513 323.5 378C382.576 372.526 437.936 377.39 420.436 421.39C413.258 439.438 355.436 467.89 292.936 478.89C242.75 487.722 182.436 484.39 160.436 488.89" stroke="#FADDA5" stroke-width="90" stroke-linecap="round" />
</svg>

<svg xmlns="http://www.w3.org/2000/svg" fill="none" viewBox="0 0 435 510"><path stroke="#FADDA5" stroke-linecap="round" stroke-width="90" d="M458 4.89c-39.5 12-119.043 23.512-163.627 32.29-55.73 10.972-187.715 40.572-187.715 40.572s-45.553.368-54.767 22.17c-5.185 12.268-13.172 29.275 1.908 43.53 21.806 20.612 129.753 3.289 153.428 1.141C230.901 142.446 332 116 404.38 137.869c39.882 12.05 45.744 48.095 38.139 56.325-70.519 76.306-268.534 27.05-322.26 36.551-47.365 8.375-42.937 51.642-23.82 57.304S214 258 317.435 241.89c78.909-12.291 125.083-9.314 125.083 36.11 0 45.686-145.674 17-198.519 17-48.436 0-63.618 61.326-40.5 75.5s60.5 13.013 120 7.5c59.076-5.474 114.436-.61 96.936 43.39-7.178 18.048-65 46.5-127.5 57.5-50.186 8.832-110.5 5.5-132.5 10"/></svg>
